icons/24px/toolkit.svg

<?xml version="1.0" encoding="UTF-8"?>
<svg id="Layer_1" data-name="Layer 1" xmlns="http://www.w3.org/2000/svg" viewBox="0 0 24 24">
  <defs>
    <style>
      .cls-1 {
        fill-rule: evenodd;
        stroke-width: 0px;
      }
    </style>
  </defs>
  <path class="cls-1" d="m6,6c0-1.1046.8954-2,2-2h8c1.1046,0,2,.8954,2,2v2h2c1.1046,0,2,.8954,2,2v9.6c0,.2209-.1791.4-.4.4H2.4c-.2209,0-.4-.1791-.4-.4v-9.6c0-1.1046.8954-2,2-2h2v-2Zm2,2h8v-2h-8v2Zm-4,2v3h5v-.6c0-.2209.1791-.4.4-.4h5.2c.2209,0,.4.1791.4.4v.6h5v-3H4Zm5,5.6v-.6h-5v3h16v-3h-5v.6c0,.2209-.1791.4-.4.4h-5.2c-.2209,0-.4-.1791-.4-.4Z"/>
</svg>

<svg width="24" height="24" viewBox="0 0 24 24" fill="none" xmlns="http://www.w3.org/2000/svg">
<path fill-rule="evenodd" clip-rule="evenodd" d="M6 6C6 4.89543 6.89543 4 8 4H16C17.1046 4 18 4.89543 18 6V8H20C21.1046 8 22 8.89543 22 10V19.6C22 19.8209 21.8209 20 21.6 20H2.4C2.17909 20 2 19.8209 2 19.6V10C2 8.89543 2.89543 8 4 8H6V6ZM8 8H16V6H8V8ZM4 10V13H9V12.4C9 12.1791 9.17909 12 9.4 12H14.6C14.8209 12 15 12.1791 15 12.4V13H20V10H4ZM9 15.6V15H4V18H20V15H15V15.6C15 15.8209 14.8209 16 14.6 16H9.4C9.17909 16 9 15.8209 9 15.6Z" fill="black"/>
</svg>
